!!!COM: Bach, Johann Sebastian
!!!CDT: 1685/3//-1750/7/28/
!!!OTL@@DE: Wo Gott der Herr nicht bei uns haelt
!!!AGN: 4-Part Chorale
!!!SCT: BH 336
!!!SCT: BWV 258
**harm	**root	**kern	**kern	**kern	**kern
!	!	!bass	!tenor	!alto	!soprno
*	*Iorgan	*Iorgan	*Iorgan	*Iorgan	*Iorgan
*	*	*clefF4	*clefF2	*clefG2	*clefG2
*M4/4	*M4/4	*M4/4	*M4/4	*M4/4	*M4/4
*met(c)	*met(c)	*met(c)	*met(c)	*met(c)	*met(c)
*MM60	*MM60	*MM60	*MM60	*MM60	*MM60
*k[f#]	*k[f#]	*k[f#]	*k[f#]	*k[f#]	*k[f#]
*e:	*e:	*e:	*e:	*e:	*e:
*>[A,A,B]	*>[A,A,B]	*>[A,A,B]	*>[A,A,B]	*>[A,A,B]	*>[A,A,B]
*>A	*>A	*>A	*>A	*>A	*>A
i	4BB	4e	4g	8b	4gg
.	.	.	.	8cc	.
=1	=1	=1	=1	=1	=1
IIIb	4DD	4B	4g	4dd	4gg
VI	4GG	4c	4g	4cc	8ee
.	.	.	.	.	8ff#
IIIb	4DD	8B	4g	4dd	8gg
.	.	8A	.	.	8aa
III	4DD	4G	4g	4dd	4bb
=2	=2	=2	=2	=2	=2
V7b/-VII	4EE	4c#	4g	4ee	4aa
V7/III	4AA	4d	4f#	8dd	4aa
.	.	.	.	8cc	.
III;	4DD;	4G;	4d;	4b;	4gg;
viiob/-VII	4GG#	4E	4e	4cc#	4gg
=3	=3	=3	=3	=3	=3
-VII	4AA	4D	4a	4dd	4ff#
iv	4EE	4A	4a	4cc	8ee
.	.	.	.	.	8ff#
i	4BB	8e	8g	4b	4gg
.	.	8d	8f#	.	.
iv	8EE	8c	4e	8a	8aa
ic	8BB	8B	.	8b	8gg
=4	=4	=4	=4	=4	=4
ii7Db	4CC#	4A	4e	4cc	2ff#
V7	4FF#	4B	8d#	4b	.
.	.	.	8a	.	.
i	4BB	4E;	4g;	4b;	4ee;
=:|!	=:|!	=:|!	=:|!	=:|!	=:|!
*>B	*>B	*>B	*>B	*>B	*>B
-VIIb	4AA	4F#	4d	4dd	4aa
=5	=5	=5	=5	=5	=5
III	2DD	8G	4d	4dd	4bb
.	.	8A	.	.	.
.	.	8B	8d	4dd	4bb
.	.	8c	8e	.	.
-VII	4AA	4d	4f#	8a	8ff#
.	.	.	.	8b	8gg
vii7o	4AA#	4d#	4f#	4cc	4aa
!!linebreak: 2
=6	=6	=6	=6	=6	=6
i	4BB	4e	8g	4b	4gg
.	.	.	8f#	.	.
vii7o/V	4EE#	4A#	4e	4cc#	4gg
V	4FF#	4B;	4b;	4dd#;	4ff#;
i	4BB	8e	4b	4ee	4gg
.	.	8d	.	.	.
=7	=7	=7	=7	=7	=7
V/-VII	2EE	8c#	4e	8ee	4aa
.	.	8B	.	8dd	.
.	.	4A	4a	4cc#	8ee
.	.	.	.	.	8ff#
III	4DD	8B	8d	4b	4gg
.	.	8c#	8e	.	.
-VII	4AA	4d	4f#	4a	4ff#
=8	=8	=8	=8	=8	=8
V7b/IV	4BB	4G#	4b	4dd	4ee
V7/-VII	4EE	4A	8a	4cc#	4ee
.	.	.	8g	.	.
-VII	4AA	4D;	4f#;	4a;	4dd;
viiob/-VII	4GG#	4E	4g	4cc#	4gg
=9	=9	=9	=9	=9	=9
-VIIb	4AA	8F#	4a	4dd	4ff#
.	.	8G	.	.	.
V/-VII	4EE	4A	4a	8cc#	8ee
.	.	.	.	8dd#	8ff#
i	4BB	8e	4b	4ee	4gg
.	.	8d	.	.	.
iv	8EE	8c	4e	8ee	8aa
ic	8BB	8B	.	8b	8gg
=10	=10	=10	=10	=10	=10
ii7Db	4CC#	4A	4e	4cc	2ff#
V7	4FF#	4B	4d#	8b	.
.	.	.	.	8a	.
i;	4BB;	4E;	4B;	4g;	4ee;
==	==	==	==	==	==
*-	*-	*-	*-	*-	*-
!!chor2scor: -l 2 -s 0.6 -o %b.pmx
!!!YEC: Copyright 2003 by Craig Stuart Sapp
!!!license: GNU General Public License (http://www.gnu.org/copyleft/gpl.html)
!!!SMA: 371 Bach Chorales, edited by Ludwig Erk, C.F. Peters
!!!PDT: 1850, 1865
!!!ONB: Harmony and Root analysis done manually by Craig Sapp
